X:25
T:Mary's Dream. Le4.025
B:L.Leadley MS#4 c1850
Z:Village Music Project, 2016 Steve Mansfield
M:C|
L:1/8
Q:1/2=60
K:G
V:1
|:d | G2A2 B3c | (d>e)(d>g) d3(c/B/) | (AGAB) c3d/e/ | (d<B)G>B A3B/c/ |
!wedge!d2!wedge!d2 !wedge!d3e/f/ | !wedge!g2!wedge!g2 {ab}!wedge!g3f/e/ | (dB)(AB) c3(d/e/) | (d<B)A>B G3 :|
|: B | e2f2 g3G | A2B2 E2zG | (B>A)(B>c) d2d2 | g3^c d3!p!(=c/A/) |
B2B2 B3(c/A/) | G2G2 G3(B/c/) | d>ed>g g>g {ab}Hb!f!(g/e/) | (d<B)A>B G3 :|
V:2
|:B | B2F2 G3A | (B>c)(B>e) B3(A/G/) | (FE)(FG) A3(B/c/) | (B<G)(B>G) F3(G/A/) |
!wedge!B2!wedge!B2 !wedge!B3(c/d/) | !wedge!B2!wedge!B2 !wedge!B3(d/c/) | (BG)(FG) A3(B/c/) | (B<G)(F>G) G3 :|
|: G | c^cd^d e3G | A2B2 E2zE | (G>F)(G>A) B2B2 | e3e !p!d3(=c/A/) |
G2G2 G3(A/c/) | B2B2 B3(G/A/) | (B>cB>e) c/d/e/f/ {ef}Hg!f!e/c/ | (B<G)c>d B3 :|
V:3
|:z | G2D2 d3(A/c/) | G2G2 G3z | d2d2 F3z | d2d2 d3z |
!wedge!G2!wedge!G2 !wedge!G3z | !wedge!G2!wedge!G2 !wedge!G3A | d2d2 d3g | d2D2 G3 :|
|: z | z4 B3A | A2B2 E2z2 | d2D2 G3z | B3G !p!F3z |
(g<d) (e<G) G3d | G2G2 G3z | !wedge!G2!wedge!G2 !wedge!G2 Hzz | !f!d2F2 G3 :|

